svgs/sharp-regular/hand-holding-skull.svg

<svg xmlns="http://www.w3.org/2000/svg" viewBox="0 0 576 512"><!--! Font Awesome Pro 6.6.0 by @fontawesome - https://fontawesome.com License - https://fontawesome.com/license (Commercial License) Copyright 2024 Fonticons, Inc. --><path d="M192 128c0 29.9 20.4 58.1 53.8 71.8l16.7 6.9-2 18L258.8 240l58.4 0-1.7-15.3-2-18 16.7-6.9C363.6 186.1 384 157.9 384 128c0-41.1-39.6-80-96-80s-96 38.9-96 80zM288 0c76.2 0 144 54.2 144 128c0 46.7-27.7 86.1-66.9 108.2l2.8 25.2 3 26.7L344 288l-112 0-26.8 0 3-26.7 2.8-25.2C171.7 214.1 144 174.7 144 128C144 54.2 211.8 0 288 0zM248 96a24 24 0 1 1 0 48 24 24 0 1 1 0-48zm56 24a24 24 0 1 1 48 0 24 24 0 1 1 -48 0zM160.7 304l7.3 0 216 0 24 0 0 24 0 46.5 79.9-50.8 20.4-13 12.8 20.5 40 64 12.2 19.5-19 13-116.8 80-6.1 4.2-7.4 0L24 512 0 512l0-48 24 0 392.6 0 91.7-62.8-15-24-80.4 51L407 432l-7 0-32 0-48 0-24 0-40 0-24 0 0-48 24 0 40 0 24 0 40 0 0-32-184.7 0-90 60-6 4L72 416l-48 0L0 416l0-48 24 0 40.7 0 90-60 6-4z"/></svg>

<svg xmlns="http://www.w3.org/2000/svg" viewBox="0 0 576 512"><!--! Font Awesome Pro 6.4.2 by @fontawesome - https://fontawesome.com License - https://fontawesome.com/license (Commercial License) Copyright 2023 Fonticons, Inc. --><path d="M192 128c0 29.9 20.4 58.1 53.8 71.8l16.7 6.9-2 18L258.8 240h58.4l-1.7-15.3-2-18 16.7-6.9C363.6 186.1 384 157.9 384 128c0-41.1-39.6-80-96-80s-96 38.9-96 80zM288 0c76.2 0 144 54.2 144 128c0 46.7-27.7 86.1-66.9 108.2l2.8 25.2 3 26.7H344 232 205.2l3-26.7 2.8-25.2C171.7 214.1 144 174.7 144 128C144 54.2 211.8 0 288 0zM248 96a24 24 0 1 1 0 48 24 24 0 1 1 0-48zm56 24a24 24 0 1 1 48 0 24 24 0 1 1 -48 0zM160.7 304H168 384h24v24 46.5l79.9-50.8 20.4-13 12.8 20.5 40 64 12.2 19.5-19 13-116.8 80-6.1 4.2H424 24 0V464H24 416.6l91.7-62.8-15-24-80.4 51L407 432h-7H368 320 296 256 232V384h24 40 24 40V352H175.3l-90 60-6 4H72 24 0V368H24 64.7l90-60 6-4z"/></svg>
